X:149
T:OSBORNE'S 2000 Millenium Waltz
R:waltz
C:Bruce Osborne - Jan. 2000
Z:abc by bosborne@kos.net
M:3/4
L:1/8
K:D
Ad|f3 e fg|f2 e2 d2|FA de fe|d4 FA|\
d4 dd|e2 d2 A2|c3 B cd|c4 EF|\
G3 F GA|e3 f ed|c3 d cB|A4 (3AAA|\
A4 AA|(3BcB A2 G2|F3 E FG|F4 Ad|\
f3 e fg|f2 e2 d2|FA de fe|d4 FA|\
d4 dd|e2 d2 c2|B3 A Bc|B4 Bc|\
d4 ed|c4 B2|A2 F4 -|F4 F2|\
A4 GF|E3 D CE|D3 C DE|D4||\
FA|d2 d2 FA|fe d2 FA|d3 c dA|E4 CD|\
E3 F ED|CE A2 AB|cB AG F^E|F4 FA|\
d2 d2 FA|fe d2 FA|d2 df ed|B3 A Bc|\
d2 d2 cd|e3 d cd|f2 d2 B2|A3 A ^GA|\
B3 B ^AB|c2 B2 A2|d3 c de|d4||
